svg/fluentui-system-icons/ic_fluent_cloud_words_32_regular.svg

<svg width="32" height="32" viewBox="0 0 32 32" fill="none" xmlns="http://www.w3.org/2000/svg">
<path d="M13 12C12.4477 12 12 12.4477 12 13C12 13.5523 12.4477 14 13 14H19C19.5523 14 20 13.5523 20 13C20 12.4477 19.5523 12 19 12H13ZM6 19C6 18.4477 6.44772 18 7 18H13C13.5523 18 14 18.4477 14 19C14 19.5523 13.5523 20 13 20H7C6.44772 20 6 19.5523 6 19ZM19 18C18.4477 18 18 18.4477 18 19C18 19.5523 18.4477 20 19 20H25C25.5523 20 26 19.5523 26 19C26 18.4477 25.5523 18 25 18H19ZM16 6C13.2003 6 11.1661 7.13445 9.85104 8.74176C8.79636 10.0308 8.22868 11.5914 8.05688 13.0472C3.93089 13.4699 2 16.6444 2 19C2 20.1452 2.28392 21.6645 3.37242 22.9085C4.48477 24.1798 6.29252 25 9 25H23C25.1496 25 26.9151 24.4766 28.1558 23.3987C29.4165 22.3035 30 20.7538 30 19C30 17.114 29.0629 15.5892 27.7362 14.5647C26.6687 13.7404 25.333 13.2223 23.9553 13.0573C23.7307 10.7384 22.6793 9.01369 21.2582 7.85104C19.6821 6.5615 17.7001 6 16 6ZM10 14C10 12.7001 10.4385 11.1821 11.399 10.0082C12.3339 8.86555 13.7997 8 16 8C17.2999 8 18.8179 8.4385 19.9918 9.39896C21.1344 10.3339 22 11.7997 22 14C22 14.5523 22.4477 15 23 15C24.2961 15 25.5771 15.4243 26.5138 16.1477C27.4371 16.8607 28 17.8359 28 19C28 20.2963 27.5835 21.2466 26.8442 21.8889C26.0849 22.5485 24.8504 23 23 23H9C6.70748 23 5.51523 22.3202 4.87758 21.5915C4.21608 20.8355 4 19.8548 4 19C4 17.5283 5.37634 15 9 15C9.55228 15 10 14.5523 10 14Z" fill="#212121"/>
</svg>

<svg xmlns="http://www.w3.org/2000/svg" width="32" height="32"><path d="M13 12a1 1 0 1 0 0 2h6a1 1 0 1 0 0-2h-6Zm-7 7a1 1 0 0 1 1-1h6a1 1 0 1 1 0 2H7a1 1 0 0 1-1-1Zm13-1a1 1 0 1 0 0 2h6a1 1 0 1 0 0-2h-6ZM16 6c-2.8 0-4.834 1.134-6.149 2.742-1.055 1.289-1.622 2.85-1.794 4.305C3.93 13.47 2 16.644 2 19c0 1.145.284 2.665 1.372 3.909C4.485 24.178 6.292 25 9 25h14c2.15 0 3.915-.523 5.156-1.601C29.416 22.303 30 20.754 30 19c0-1.886-.937-3.41-2.264-4.435-1.067-.825-2.403-1.343-3.78-1.508-.225-2.319-1.277-4.043-2.698-5.206C19.682 6.561 17.7 6 16 6Zm-6 8c0-1.3.438-2.818 1.399-3.992C12.334 8.866 13.799 8 16 8c1.3 0 2.818.438 3.992 1.399C21.134 10.334 22 11.799 22 14a1 1 0 0 0 1 1c1.296 0 2.577.424 3.514 1.148C27.437 16.86 28 17.836 28 19c0 1.296-.416 2.247-1.156 2.889C26.084 22.549 24.85 23 23 23H9c-2.293 0-3.485-.68-4.122-1.409C4.216 20.835 4 19.855 4 19c0-1.472 1.376-4 5-4a1 1 0 0 0 1-1Z"/></svg>
